svg/system/history_2_line.svg

<?xml version="1.0" encoding="UTF-8"?>
<svg width="24px" height="24px" viewBox="0 0 24 24" version="1.1" xmlns="http://www.w3.org/2000/svg" xmlns:xlink="http://www.w3.org/1999/xlink">
    <title>history_2_line</title>
    <g id="页面-1" stroke="none" stroke-width="1" fill="none" fill-rule="evenodd">
        <g id="System" transform="translate(-816.000000, -288.000000)" fill-rule="nonzero">
            <g id="history_2_line" transform="translate(816.000000, 288.000000)">
                 <path d="M24,0 L24,24 L0,24 L0,0 L24,0 Z M12.5934901,23.257841 L12.5819402,23.2595131 L12.5108777,23.2950439 L12.4918791,23.2987469 L12.4918791,23.2987469 L12.4767152,23.2950439 L12.4056548,23.2595131 C12.3958229,23.2563662 12.3870493,23.2590235 12.3821421,23.2649074 L12.3780323,23.275831 L12.360941,23.7031097 L12.3658947,23.7234994 L12.3769048,23.7357139 L12.4804777,23.8096931 L12.4953491,23.8136134 L12.4953491,23.8136134 L12.5071152,23.8096931 L12.6106902,23.7357139 L12.6232938,23.7196733 L12.6232938,23.7196733 L12.6266527,23.7031097 L12.609561,23.275831 C12.6075724,23.2657013 12.6010112,23.2592993 12.5934901,23.257841 L12.5934901,23.257841 Z M12.8583906,23.1452862 L12.8445485,23.1473072 L12.6598443,23.2396597 L12.6498822,23.2499052 L12.6498822,23.2499052 L12.6471943,23.2611114 L12.6650943,23.6906389 L12.6699349,23.7034178 L12.6699349,23.7034178 L12.678386,23.7104931 L12.8793402,23.8032389 C12.8914285,23.8068999 12.9022333,23.8029875 12.9078286,23.7952264 L12.9118235,23.7811639 L12.8776777,23.1665331 C12.8752882,23.1545897 12.8674102,23.1470016 12.8583906,23.1452862 L12.8583906,23.1452862 Z M12.1430473,23.1473072 C12.1332178,23.1423925 12.1221763,23.1452606 12.1156365,23.1525954 L12.1099173,23.1665331 L12.0757714,23.7811639 C12.0751323,23.7926639 12.0828099,23.8018602 12.0926481,23.8045676 L12.108256,23.8032389 L12.3092106,23.7104931 L12.3186497,23.7024347 L12.3186497,23.7024347 L12.3225043,23.6906389 L12.340401,23.2611114 L12.337245,23.2485176 L12.337245,23.2485176 L12.3277531,23.2396597 L12.1430473,23.1473072 Z" id="MingCute" fill-rule="nonzero"></path>
                <path d="M6.57052,5.56293 C5.97004,6.04332 5.97003,6.95663 6.57052,7.43702 L11.0504,11.0209 C11.8361,11.6495 13,11.0901 13,10.0839 L13,8.5 C13,7.94771 12.5523,7.5 12,7.5 C11.474,7.5 11.0429,7.90605 11.003,8.42178 L8.60078,6.49998 L11,4.58061 L11,5 C11,5.55228 11.4477,6 12,6 C15.5265,6 18.4439,8.6077 18.9291,12 L18,12 C17.4477,12 17,12.4477 17,13 C17,13.5523 17.4477,14 18,14 L18.9291,14 C18.4906,17.0657 16.0657,19.4906 13,19.9291 L13,18 C13,17.4477 12.5523,17 12,17 C11.4477,17 11,17.4477 11,18 L11,19.9291 C7.93431,19.4906 5.5094,17.0657 5.07089,14 L6,14 C6.55228,14 7,13.5523 7,13 C7,12.4477 6.55228,12 6,12 L5.07076,12 C5.15175,11.4331 5.30056,10.8888 5.50845,10.3752 C5.71568,9.86328 5.46867,9.28028 4.95673,9.07306 C4.4448,8.86583 3.8618,9.11285 3.65458,9.62478 C3.23213,10.6684 3,11.8083 3,13 C3,17.9706 7.02944,22 12,22 C16.9706,22 21,17.9706 21,13 C21,8.36744 17.5,4.55237 13,4.05492 L13,2.91612 C13,1.90991 11.8361,1.35051 11.0504,1.97908 L6.57052,5.56293 Z" id="路径" fill="#09244B"></path>
            </g>
        </g>
    </g>
</svg>

<svg xmlns="http://www.w3.org/2000/svg" width="24" height="24"><g fill="none" fill-rule="nonzero"><path d="M24 0v24H0V0h24ZM12.593 23.258l-.011.002-.071.035-.02.004-.014-.004-.071-.035c-.01-.004-.019-.001-.024.005l-.004.01-.017.428.005.02.01.013.104.074.015.004.012-.004.104-.074.012-.016.004-.017-.017-.427c-.002-.01-.009-.017-.017-.018Zm.265-.113-.013.002-.185.093-.01.01-.003.011.018.43.005.012.008.007.201.093c.012.004.023 0 .029-.008l.004-.014-.034-.614c-.003-.012-.01-.02-.02-.022Zm-.715.002a.023.023 0 0 0-.027.006l-.006.014-.034.614c0 .012.007.02.017.024l.015-.002.201-.093.01-.008.004-.011.017-.43-.003-.012-.01-.01-.184-.092Z"/><path fill="#09244B" d="M6.57 5.563a1.2 1.2 0 0 0 0 1.874l4.48 3.584c.786.628 1.95.07 1.95-.937V8.5a1 1 0 0 0-1.997-.078L8.601 6.5 11 4.58V5a1 1 0 0 0 1 1 7.001 7.001 0 0 1 6.93 6H18a1 1 0 1 0 0 2h.93A7.004 7.004 0 0 1 13 19.93V18a1 1 0 1 0-2 0v1.93A7.004 7.004 0 0 1 5.07 14H6a1 1 0 1 0 0-2h-.93c.082-.567.23-1.111.438-1.625a1 1 0 1 0-1.853-.75A9 9 0 1 0 13 4.055V2.916c0-1.006-1.164-1.565-1.95-.937L6.57 5.563Z"/></g></svg>
